media/icons/block1/Конструкция.svg

<svg width="95" height="95" viewBox="0 0 95 95" fill="none" xmlns="http://www.w3.org/2000/svg">
<path d="M39.5833 19.7917H55.4166V75.2083H39.5833V19.7917ZM19.7916 75.2083V39.5833H35.625V75.2083H19.7916ZM27.7083 19.7917C25.6087 19.7917 23.595 20.6257 22.1104 22.1104C20.6257 23.5951 19.7916 25.6087 19.7916 27.7083C19.7916 29.808 20.6257 31.8216 22.1104 33.3062C23.595 34.7909 25.6087 35.625 27.7083 35.625C29.8079 35.625 31.8216 34.7909 33.3062 33.3062C34.7909 31.8216 35.625 29.808 35.625 27.7083C35.625 25.6087 34.7909 23.5951 33.3062 22.1104C31.8216 20.6257 29.8079 19.7917 27.7083 19.7917ZM59.375 19.7917H75.2083V35.625H59.375V19.7917ZM75.2083 39.5833H59.375V55.4167H75.2083V39.5833Z" fill="#378BC5"/>
</svg>

<svg xmlns="http://www.w3.org/2000/svg" width="95" height="95" fill="none" viewBox="0 0 95 95"><path fill="#378bc5" d="M39.583 19.792h15.834v55.416H39.583zM19.792 75.208V39.583h15.833v35.625zm7.916-55.416a7.916 7.916 0 1 0 0 15.832 7.916 7.916 0 0 0 0-15.832m31.667 0h15.833v15.833H59.375zm15.833 19.791H59.375v15.834h15.833z"/></svg>
